assets/Revolving hearts/Flat/revolving_hearts_flat.svg

<svg width="32" height="32" viewBox="0 0 32 32" fill="none" xmlns="http://www.w3.org/2000/svg">
<path fill-rule="evenodd" clip-rule="evenodd" d="M25.8245 2.07619C24.505 2.31846 23.5001 3.93007 23.5001 3.93007C23.5001 3.93007 22.4851 2.31846 21.1757 2.07619C17.9175 1.48632 16.5776 4.44621 17.1156 6.64769C17.813 9.48166 20.8412 12.0622 22.464 13.2735C23.0839 13.7362 23.9163 13.7362 24.5363 13.2735C26.159 12.0622 29.1873 9.48166 29.8847 6.64769C30.4226 4.44621 29.0828 1.48632 25.8245 2.07619ZM2.9597 11.697C4.35076 8.4512 9.10538 5.50957 15.4618 5.99856C15.7371 6.01974 15.9775 5.81371 15.9987 5.53838C16.0198 5.26305 15.8138 5.02268 15.5385 5.0015C8.89488 4.49043 3.6495 7.54886 2.04056 11.3031C1.93178 11.5569 2.04935 11.8508 2.30317 11.9596C2.55698 12.0684 2.85092 11.9508 2.9597 11.697ZM28.88 11.2017C28.7084 10.9853 28.3939 10.949 28.1775 11.1205C27.9611 11.2921 27.9248 11.6066 28.0964 11.823C28.8163 12.7309 29.0755 13.6426 29.0355 14.5055C28.995 15.3777 28.6463 16.2387 28.0856 17.0233C26.953 18.6083 25.0324 19.776 23.4294 20.005C23.156 20.0441 22.9661 20.2973 23.0052 20.5707C23.0442 20.8441 23.2975 21.034 23.5708 20.995C25.4679 20.724 27.6222 19.3917 28.8992 17.6047C29.5432 16.7035 29.9829 15.6605 30.0344 14.5518C30.0863 13.4338 29.7411 12.2876 28.88 11.2017ZM12.0061 14.8941C12.0061 14.8941 13.5642 12.4792 15.5918 12.1154C20.6058 11.2263 22.6633 15.662 21.8143 18.9661C20.6916 23.4101 15.6752 27.7131 13.2788 29.5587C12.5165 30.1458 11.476 30.1454 10.7141 29.5579C8.31801 27.7102 3.30076 23.4029 2.17796 18.9661C1.34896 15.662 3.41647 11.2263 8.42044 12.1154C10.448 12.4792 12.0061 14.8941 12.0061 14.8941Z" fill="#F92F60"/>
</svg>

<svg xmlns="http://www.w3.org/2000/svg" width="32" height="32" fill="none"><path fill="#F92F60" fill-rule="evenodd" d="M25.825 2.076C24.505 2.318 23.5 3.93 23.5 3.93s-1.015-1.612-2.324-1.854c-3.258-.59-4.598 2.37-4.06 4.572.697 2.834 3.725 5.414 5.348 6.626a1.72 1.72 0 0 0 2.072 0c1.623-1.212 4.651-3.792 5.349-6.626.538-2.202-.802-5.162-4.06-4.572ZM2.96 11.697C4.35 8.451 9.105 5.51 15.462 5.999a.5.5 0 0 0 .077-.997C8.895 4.49 3.649 7.549 2.04 11.303a.5.5 0 1 0 .919.394Zm25.92-.495a.5.5 0 0 0-.784.621c.72.908.98 1.82.94 2.682-.041.873-.39 1.734-.95 2.518-1.133 1.585-3.054 2.753-4.657 2.982a.5.5 0 1 0 .142.99c1.897-.271 4.051-1.603 5.328-3.39.644-.902 1.084-1.944 1.135-3.053.052-1.118-.293-2.264-1.154-3.35Zm-16.874 3.692s1.558-2.415 3.586-2.779c5.014-.889 7.071 3.547 6.222 6.851-1.122 4.444-6.139 8.747-8.535 10.593a2.087 2.087 0 0 1-2.565-.001c-2.396-1.848-7.413-6.155-8.536-10.592-.829-3.304 1.238-7.74 6.242-6.85 2.028.363 3.586 2.778 3.586 2.778Z" clip-rule="evenodd"/></svg>
